FINK
CUT[SCHOENER FRUEHLING KOMM DOCH WIEDER]
REG[Europa, Mitteleuropa, Deutschland]
KEY[F0221A 16  C 3/4]
MEL[-5_.-4  -3__-1__1_.-6  -5__-3__
    -6_.-5  -4__-2__-5_.-4  -3__0__
    3_.2  1__-5__1_.-6  -5__-3__
    -6_.-5  -4__-2__-5_-4_  -3__0___
    -5__.4_3_.2  1_.-3-5__0__
    -5_.-72__2__  1_.23__3__
    -5__.4_3_.2  1_.-3-5__0__
    -5_.-62__-7__  1__0__ //] >>
FCT[Jahreszeiten - Lied, Fruehling, Natur]
